configs/network-logos/camp-network-logo-dark.svg

<svg xmlns="http://www.w3.org/2000/svg" fill="none" viewBox="0 0 1648 420">
  <path fill="#fff" d="M488.704 415h-47.022c-14.977 0-25.439-14.898-20.403-29.059L551.524 19.444C554.6 10.784 562.774 5 571.927 5h56.634c9.167 0 17.348 5.791 20.417 14.464L778.73 385.961c5.015 14.162-5.447 29.032-20.417 29.032h-48.618c-9.324 0-17.608-5.991-20.554-14.87l-18.821-56.688c-2.946-8.879-11.229-14.87-20.554-14.87h-100.77c-9.277 0-17.526 5.936-20.513 14.753l-19.266 56.922c-2.988 8.817-11.237 14.753-20.513 14.753V415Zm99.961-249.318-29.255 87.542h80.579l-29.248-87.542a1523.515 1523.515 0 0 1-6.626-21.61c-2.206-7.38-3.679-13.481-4.412-18.282-.74 4.808-2.124 10.805-4.138 18.007a380.79 380.79 0 0 1-6.9 21.885ZM902.947 415h-43.204C847.734 415 838 405.234 838 393.184V26.824c0-12.05 9.734-21.817 21.743-21.817h50.21c8.897 0 16.903 5.44 20.193 13.742l113.294 285.223c.99 2.476 4.48 2.482 5.47 0l113.82-285.264c3.3-8.281 11.3-13.708 20.19-13.708h51.34c12.01 0 21.74 9.767 21.74 21.816v366.361c0 12.05-9.73 21.816-21.74 21.816h-43.21c-12.01 0-21.75-9.766-21.75-21.816V274.266c0-14.402.18-26.404.55-36.012.36-9.601.83-18.006 1.38-25.207.26-3.391-4.46-4.471-5.68-1.293l-73.15 189.318c-3.24 8.398-11.29 13.928-20.27 13.928h-51.9c-8.99 0-17.05-5.557-20.29-13.976l-71.932-187.379c-1.227-3.198-5.991-2.084-5.676 1.328.747 8.012 1.254 16.328 1.529 24.952.555 17.724.829 37.863.829 60.387v92.872c0 12.05-9.733 21.816-21.743 21.816ZM1630.54 70.1c-11.64-20.503-27.91-36.474-48.79-47.926C1560.87 10.73 1536.38 5 1508.3 5h-144.47c-12.06 0-21.83 9.767-21.83 21.817v366.366c0 12.05 9.77 21.817 21.83 21.817h46.14c12.06 0 21.83-9.767 21.83-21.817v-92.666c0-12.05 9.77-21.817 21.83-21.817h54.67c28.08 0 52.57-5.722 73.45-17.181 20.87-11.445 37.14-27.429 48.79-47.925 11.63-20.503 17.46-44.411 17.46-71.751 0-27.34-5.82-51.247-17.46-71.75v.007Zm-93.41 114.689c-10.72 9.423-26.98 14.127-48.78 14.127h-34.71c-12.05 0-21.82-9.766-21.82-21.817v-70.498c0-12.05 9.77-21.817 21.82-21.817h34.71c21.81 0 38.06 4.704 48.78 14.127 10.72 9.423 16.08 23.736 16.08 42.939s-5.36 33.516-16.08 42.939ZM386.03 296.547l-45.351-35.367c-7.615-5.938-18.697-3.477-23.179 5.086-11.131 21.237-28.574 38.734-48.559 50.672l-47.531-47.662a13.619 13.619 0 0 0-9.643-4.006 13.619 13.619 0 0 0-9.643 4.006l-50.567 50.707C112.237 299.097 85.384 257.641 85.384 210c0-68.582 55.645-124.38 124.039-124.38 41.362 0 80.991 18.06 107.186 61.468 4.694 7.78 15.023 9.848 22.336 4.474l44.008-32.343c6.531-4.797 8.265-13.848 3.961-20.727C348.739 37.387 281.984 0 209.423 0 93.944 0 0 94.203 0 210s93.944 210 209.423 210c39.477 0 77.941-11.086 111.243-32.047a210.436 210.436 0 0 0 69.175-71.262c3.961-6.722 2.344-15.354-3.804-20.144h-.007ZM179.445 330.69l32.315-32.404L242.389 329c-10.911 3.505-22.069 5.381-32.966 5.381a123.572 123.572 0 0 1-29.978-3.684v-.007Zm29.032-152.888c-.048 1.024-.055 14.632 33.954 37.875 25.372 17.346 13.488 51.902 8.293 63.262a101.193 101.193 0 0 0-13.79-26.741 101.23 101.23 0 0 0-25.181-24.46c-7.114 4.371-18.786 12.88-28.148 27.505a87.423 87.423 0 0 0-10.569 23.696l-.02-.034c-10.349-27.903-6.683-41.841-1.337-49.414 4.195-5.945 11.816-14.158 11.816-14.158 6.655-6.639 13.68-13.099 20.438-26.233 4.153-8.075 4.517-10.886 4.544-11.305v.007Z"/>
  <path fill="#FF6D01" d="M183.393 215.477s-7.639 8.207-11.853 14.147c-5.363 7.568-9.035 21.495 1.34 49.376-59.144-51.711 1.761-104.486.544-100.469-4.525 14.937 9.962 36.946 9.962 36.946h.007Zm14.425-16.255a84.08 84.08 0 0 0 6.051-9.992c4.552-8.81 4.565-11.358 4.565-11.358s-1.437 13.748 34.055 37.914c25.454 17.333 13.532 51.862 8.32 63.214 0 0 30.04-19.132 25.777-51.45-5.123-38.876-26.183-35.367-41.832-64.161-14.597-26.858 10.334-48.374 10.334-48.374s-33.374-1.792-48.652 33.252c-16.102 36.925 1.375 50.962 1.375 50.962l.007-.007Z"/>
</svg>

<svg width="1648" height="420" viewBox="0 0 1648 420" fill="none" xmlns="http://www.w3.org/2000/svg">
<path d="M488.704 415H441.682C426.705 415 416.243 400.102 421.279 385.941L551.524 19.4436C554.6 10.7843 562.774 5 571.927 5H628.561C637.728 5 645.909 10.7912 648.978 19.4643L778.73 385.961C783.745 400.123 773.283 414.993 758.313 414.993H709.695C700.371 414.993 692.087 409.002 689.141 400.123L670.32 343.435C667.374 334.556 659.091 328.565 649.766 328.565H548.996C539.719 328.565 531.47 334.501 528.483 343.318L509.217 400.24C506.229 409.057 497.98 414.993 488.704 414.993V415ZM588.665 165.682L559.41 253.224H639.989L610.741 165.682C608.534 158.667 606.321 151.465 604.115 144.072C601.909 136.692 600.436 130.591 599.703 125.79C598.963 130.598 597.579 136.595 595.565 143.797C593.537 150.998 591.235 158.295 588.665 165.682Z" fill="white"/>
<path d="M902.947 415H859.743C847.734 415 838 405.234 838 393.184V26.8233C838 14.7734 847.734 5.00688 859.743 5.00688H909.953C918.85 5.00688 926.856 10.4472 930.146 18.7487L1043.44 303.972C1044.43 306.448 1047.92 306.454 1048.91 303.972L1162.73 18.7075C1166.03 10.4266 1174.03 5 1182.92 5H1234.26C1246.27 5 1256 14.7665 1256 26.8164V393.177C1256 405.227 1246.27 414.993 1234.26 414.993H1191.05C1179.04 414.993 1169.3 405.227 1169.3 393.177V274.266C1169.3 259.864 1169.48 247.862 1169.85 238.254C1170.21 228.653 1170.68 220.248 1171.23 213.047C1171.49 209.656 1166.77 208.576 1165.55 211.754L1092.4 401.072C1089.16 409.47 1081.11 415 1072.13 415H1020.23C1011.24 415 1003.18 409.443 999.94 401.024L928.008 213.645C926.781 210.447 922.017 211.561 922.332 214.973C923.079 222.985 923.586 231.301 923.861 239.925C924.416 257.649 924.69 277.788 924.69 300.312V393.184C924.69 405.234 914.957 415 902.947 415Z" fill="white"/>
<path d="M1630.54 70.0996C1618.9 49.5965 1602.63 33.6259 1581.75 22.1742C1560.87 10.7293 1536.38 5 1508.3 5H1363.83C1351.77 5 1342 14.7667 1342 26.8168V393.183C1342 405.233 1351.77 415 1363.83 415H1409.97C1422.03 415 1431.8 405.233 1431.8 393.183V300.517C1431.8 288.467 1441.57 278.7 1453.63 278.7H1508.3C1536.38 278.7 1560.87 272.978 1581.75 261.519C1602.62 250.074 1618.89 234.09 1630.54 213.594C1642.17 193.091 1648 169.183 1648 141.843C1648 114.503 1642.18 90.5958 1630.54 70.0927V70.0996ZM1537.13 184.789C1526.41 194.212 1510.15 198.916 1488.35 198.916H1453.64C1441.59 198.916 1431.82 189.15 1431.82 177.099V106.601C1431.82 94.5506 1441.59 84.7839 1453.64 84.7839H1488.35C1510.16 84.7839 1526.41 89.4884 1537.13 98.9112C1547.85 108.334 1553.21 122.647 1553.21 141.85C1553.21 161.053 1547.85 175.366 1537.13 184.789Z" fill="white"/>
<path d="M386.03 296.547L340.679 261.18C333.064 255.242 321.982 257.703 317.5 266.266C306.369 287.503 288.926 305 268.941 316.938L221.41 269.276C218.854 266.713 215.386 265.27 211.767 265.27C208.148 265.27 204.68 266.713 202.124 269.276L151.557 319.983C112.237 299.097 85.3839 257.641 85.3839 210C85.3839 141.418 141.029 85.6192 209.423 85.6192C250.785 85.6192 290.414 103.68 316.609 147.088C321.303 154.868 331.632 156.936 338.945 151.562L382.953 119.219C389.484 114.422 391.218 105.371 386.914 98.4916C348.739 37.3871 281.984 0 209.423 0C93.9442 0 0 94.2031 0 210C0 325.797 93.9442 420 209.423 420C248.9 420 287.364 408.914 320.666 387.953C349.13 370.029 372.83 345.569 389.841 316.691C393.802 309.969 392.185 301.337 386.037 296.547H386.03ZM179.445 330.69L211.76 298.286L242.389 329C231.478 332.505 220.32 334.381 209.423 334.381C199.087 334.381 189.054 333.096 179.445 330.697V330.69ZM208.477 177.802C208.429 178.826 208.422 192.434 242.431 215.677C267.803 233.023 255.919 267.579 250.724 278.939C248.325 271.867 244.192 262.246 236.934 252.198C228.209 240.109 218.518 232.336 211.753 227.738C204.639 232.109 192.967 240.618 183.605 255.243C177.937 264.101 174.818 272.534 173.036 278.939L173.016 278.905C162.667 251.002 166.333 237.064 171.679 229.491C175.874 223.546 183.495 215.333 183.495 215.333C190.15 208.694 197.175 202.234 203.933 189.1C208.086 181.025 208.45 178.214 208.477 177.795V177.802Z" fill="white"/>
<path d="M183.393 215.477C183.393 215.477 175.754 223.684 171.54 229.624C166.177 237.192 162.505 251.119 172.88 279C113.736 227.289 174.641 174.514 173.424 178.531C168.899 193.468 183.386 215.477 183.386 215.477H183.393ZM197.818 199.222C199.888 196.29 201.923 193.001 203.869 189.23C208.421 180.42 208.434 177.872 208.434 177.872C208.434 177.872 206.997 191.62 242.489 215.786C267.943 233.119 256.021 267.648 250.809 279C250.809 279 280.849 259.868 276.586 227.55C271.463 188.674 250.403 192.183 234.754 163.389C220.157 136.531 245.088 115.015 245.088 115.015C245.088 115.015 211.714 113.223 196.436 148.267C180.334 185.192 197.811 199.229 197.811 199.229L197.818 199.222Z" fill="#FF6D01"/>
</svg>
